images/parklet/yerba-buena-parklet-left.svg

<?xml version="1.0" standalone="no"?><!DOCTYPE svg PUBLIC "-//W3C//DTD SVG 1.1//EN" "http://www.w3.org/Graphics/SVG/1.1/DTD/svg11.dtd"><svg width="192px" height="192px" version="1.1" xmlns="http://www.w3.org/2000/svg" xmlns:xlink="http://www.w3.org/1999/xlink" xml:space="preserve" style="fill-rule:evenodd;clip-rule:evenodd;stroke-linejoin:round;stroke-miterlimit:1.41421;"><g><g id="parklet-left" transform="matrix(0.5,0,0,0.5,-0.5,-48)"><g id="shrub-bg"><g transform="matrix(1,0,0,1,-94,0)"><path d="M352.625,241.926l-6.479,7.936l6.26,16.926l-15.293,8.228l1.905,-10.758l-12.009,-0.587l-2.39,7.712l-12.465,2.285l-9.82,-10.334l-7.334,-11.082l-12,8.151l-10.334,-10.602l1.667,-4.295l-4.333,-5.506l-5,0l-9.31,5.506l-8.357,-10.506l-19,-3.744l7.693,-12.256l-14.026,-10.495l7.666,-11.377l-1.666,-12.128l9,0l-4.786,-14l16.119,-13.333l7.357,13.667l12.719,1l13.257,-1.334l-1.666,-3.333l-11.591,-3.333l4.257,-17.575l5,-2.425l2,-11l9.334,-6.667l7,13.667l7.666,2.333l12,-14.667l11.126,10.334l1.775,10.333l7.578,9.333l13.855,-10l2.625,18.27l9.947,-2.281l3.428,-6.655l12.988,3.333l3.082,10.667l-8.912,6.333l11.508,4.667l14.334,-2.667l-7.211,14l9.211,11.333l-13.334,17.667l-7.333,-12.667l-7.175,16.667l-7.158,-4l-3.428,10.333l8.094,4.549l-8.094,2.451l-9.947,1.926Z" style="fill:#35813f;fill-rule:nonzero;"/></g></g><g id="shrub-stem"><g transform="matrix(1,0,0,1,-94,0)"><path d="M318.188,299.567l7.479,-37.959l29.099,-30.856l3.235,-42.348l-7.395,-4.649l-4.461,43.997l-27.957,28.5l-6.035,40.273l6.035,3.042Z" style="fill:#645849;fill-rule:nonzero;"/></g><g transform="matrix(1,0,0,1,-94,0)"><path d="M318.188,286.693l-26.592,-27.05l-2.929,-38.921l-24,-30.22l7.146,-2.098l23.783,29.348l4.905,38l21.89,22.486l-4.203,8.455Z" style="fill:#645849;fill-rule:nonzero;"/></g><g transform="matrix(1,0,0,1,-94,0)"><path d="M292,238.5l-19.985,-4.426l-22.025,-36.382l-11.022,-1.686l29.015,45.334l24.017,4.166l0,-7.006Z" style="fill:#645849;fill-rule:nonzero;"/></g><g transform="matrix(1,0,0,1,-94,0)"><path d="M313.152,191.502l-7.485,2.75l3.333,41.223l20.811,15.287l5.877,-7.756l-18.501,-12.092" style="fill:#645849;fill-rule:nonzero;"/></g><g transform="matrix(1,0,0,1,-94,0)"><path d="M330.488,206.667l6.588,-19.415l-7.588,-2.496l-5.098,19.455l-12.238,8.456l1.539,7.933l16.797,-13.933Z" style="fill:#645849;fill-rule:nonzero;"/></g></g><g id="shrub"><g transform="matrix(1,0,0,1,-94,0)"><path d="M334.08,181l-13.626,22.424l18.092,7.38l10.018,-16.488l-14.484,-13.316Z" style="fill:#699b48;fill-rule:nonzero;"/></g><g transform="matrix(1,0,0,1,-94,0)"><path d="M320.058,248.438l15.777,-29.771l-23.747,-8.098l-11.6,21.89l19.57,15.979Z" style="fill:#699b48;fill-rule:nonzero;"/></g><g transform="matrix(1,0,0,1,-94,0)"><path d="M290.838,158.869l19.323,7.92l3.55,-15.14l-14.208,-5.824l-8.665,13.044Z" style="fill:#699b48;fill-rule:nonzero;"/></g><g transform="matrix(1,0,0,1,-94,0)"><path d="M276.967,190.497l22.446,-4.618l-6.036,-15.961l-16.504,3.395l0.094,17.184Z" style="fill:#699b48;fill-rule:nonzero;"/></g><g transform="matrix(1,0,0,1,-94,0)"><path d="M253.981,173.867l-11.25,28.256l22.101,4.948l8.272,-20.777l-19.123,-12.427Z" style="fill:#699b48;fill-rule:nonzero;"/></g><g transform="matrix(1,0,0,1,-94,0)"><path d="M275.795,153.771l-13.906,18.238l15.046,8.08l10.225,-13.41l-11.365,-12.908Z" style="fill:#699b48;fill-rule:nonzero;"/></g><g transform="matrix(1,0,0,1,-94,0)"><path d="M264.206,228.328l-11.42,-25.464l-17.38,11.393l8.398,18.723l20.402,-4.652Z" style="fill:#699b48;fill-rule:nonzero;"/></g><g transform="matrix(1,0,0,1,-94,0)"><path d="M276.947,194.156l-22.201,20.214l17.474,13.946l16.325,-14.862l-11.598,-19.298Z" style="fill:#699b48;fill-rule:nonzero;"/></g><g transform="matrix(1,0,0,1,-94,0)"><path d="M302.977,217.135l-25.586,1.875l4.388,18.592l18.813,-1.379l2.385,-19.088Z" style="fill:#699b48;fill-rule:nonzero;"/></g><g transform="matrix(1,0,0,1,-94,0)"><path d="M291.58,180.166l3.762,32.086l23.149,-6.54l-2.765,-23.592l-24.146,-1.954Z" style="fill:#699b48;fill-rule:nonzero;"/></g><g transform="matrix(1,0,0,1,-94,0)"><path d="M263.703,229.441l-3.241,20.453l15.421,-0.022l2.383,-15.039l-14.563,-5.392Z" style="fill:#699b48;fill-rule:nonzero;"/></g><g transform="matrix(1,0,0,1,-94,0)"><path d="M298.794,262.873l18.404,-11.297l-10.471,-12.203l-13.534,8.307l5.601,15.193Z" style="fill:#699b48;fill-rule:nonzero;"/></g><g transform="matrix(1,0,0,1,-94,0)"><path d="M322.236,239.886l21.897,19.488l11.753,-18.392l-16.1,-14.33l-17.55,13.234Z" style="fill:#699b48;fill-rule:nonzero;"/></g><g transform="matrix(1,0,0,1,-94,0)"><path d="M300.57,178.778l27.354,5.121l0.546,-20.715l-20.112,-3.765l-7.788,19.359Z" style="fill:#699b48;fill-rule:nonzero;"/></g><g transform="matrix(1,0,0,1,-94,0)"><path d="M358.672,182.073l-4.089,29.652l22.284,-0.481l3.006,-21.803l-21.201,-7.368Z" style="fill:#699b48;fill-rule:nonzero;"/></g><g transform="matrix(1,0,0,1,-94,0)"><path d="M338.13,209.84l5.058,23.553l16.724,-6.491l-3.72,-17.318l-18.062,0.256Z" style="fill:#699b48;fill-rule:nonzero;"/></g><g transform="matrix(1,0,0,1,-94,0)"><path d="M365.168,170.99l-31.021,-12.359l-5.439,24.264l22.81,9.088l13.65,-20.993Z" style="fill:#699b48;fill-rule:nonzero;"/></g></g><g id="plants"><g transform="matrix(1,0,0,1,-94,0)"><path d="M246.561,278.109l-4.605,0l-0.844,29.246l8.904,1.381l-3.455,-30.627Z" style="fill:#679a45;fill-rule:nonzero;"/></g><g transform="matrix(1,0,0,1,-94,0)"><path d="M200.32,253.381l-4.762,-0.467l-0.189,60.69l8.912,2.099l-3.961,-62.322Z" style="fill:#679a45;fill-rule:nonzero;"/></g><g transform="matrix(1,0,0,1,-94,0)"><path d="M210.746,253.203l6.254,-18.805l-37.383,-0.07l6.086,18.957l25.043,-0.082Z" style="fill:#ae2025;fill-rule:nonzero;"/></g><g transform="matrix(1,0,0,1,-94,0)"><path d="M256.954,278.361l6.254,-18.805l-37.383,-0.07l6.086,18.957l25.043,-0.082Z" style="fill:#ae2025;fill-rule:nonzero;"/></g><g transform="matrix(1,0,0,1,-94,0)"><path d="M381.206,276.145l-4.605,0l-0.844,38.318l8.904,1.809l-3.455,-40.127Z" style="fill:#679a45;fill-rule:nonzero;"/></g><g transform="matrix(1,0,0,1,-94,0)"><path d="M391.599,276.398l6.254,-18.805l-37.383,-0.07l6.086,18.957l25.043,-0.082Z" style="fill:#ae2025;fill-rule:nonzero;"/></g><g transform="matrix(1,0,0,1,-94,0)"><path d="M426.645,262.347l-4.762,-0.467l-0.189,47.936l8.912,2.099l-3.961,-49.568Z" style="fill:#679a45;fill-rule:nonzero;"/></g><g transform="matrix(1,0,0,1,-94,0)"><path d="M437.07,262.169l6.254,-18.805l-37.383,-0.07l6.086,18.957l25.043,-0.082Z" style="fill:#ae2025;fill-rule:nonzero;"/></g><g transform="matrix(1,0,0,1,-94,0)"><path d="M207.051,313.506l9.625,-9.5l35.695,-2.469l7.118,-7.031l11.25,6.854l8.812,-3.354l20.402,-2.471l4.2,2.991l5,-4.916l6.63,1.38l2.329,-6.548l16.24,5.873l27.135,-6.12l14.166,14.084l42.095,-7.003l11.24,-11.165l13.899,12.801l18.627,3.819l3.724,12.808l-258.187,-0.033Z" style="fill:#679a45;fill-rule:nonzero;"/></g><g transform="matrix(1,0,0,1,-94,0)"><path d="M378.988,313.57l4.252,-5.709l27.25,-1.418l19,-13.75l3.545,15.252l10.289,5.584l-64.336,0.041Z" style="fill:#35813f;fill-rule:nonzero;"/></g><g transform="matrix(1,0,0,1,-94,0)"><path d="M364.917,312.471l-17.5,-8.418l-27.633,-3.488l-11.93,-6.656l-6.437,6.478l-4,-4l-25.813,-3.103l-5.687,5.644l-2.328,-6.549l-7.217,1.639l-6.328,-6.549l-9.447,5.326l-2.793,0.547l-29.731,-6.527l-10.09,10.035l-16.544,6.989l-4.939,8.728l188.417,-0.096Z" style="fill:#679a45;fill-rule:nonzero;"/></g><g transform="matrix(1,0,0,1,-94,0)"><path d="M231.892,312.729l-1.395,-3.816l-19.789,-6.752l-3.666,4.834l-13.166,5.498l38.016,0.236Z" style="fill:#35813f;fill-rule:nonzero;"/></g><g transform="matrix(1,0,0,1,-94,0)"><path d="M299.188,312.514l-7,-7.834l-8.846,2.049l-22.467,-0.57l-8.062,6.312l19.709,0.043l26.666,0Z" style="fill:#35813f;fill-rule:nonzero;"/></g><g transform="matrix(1,0,0,1,-94,0)"><path d="M320.488,313.611l5.463,-3.664l1.537,-7.17l30.75,2.582l4.334,8.168l-42.084,0.084Z" style="fill:#35813f;fill-rule:nonzero;"/></g></g><g id="parklet-with-seat"><g transform="matrix(1,0,0,1,-94,0)"><path d="M159,312l316,0l2,24l-320,0l2,-24Z" style="fill:#ae2025;fill-rule:nonzero;"/></g><g transform="matrix(1,0,0,1,-94,0)"><path d="M99,460l376,0l2,-24l-380,0l2,24Z" style="fill:#ae2025;fill-rule:nonzero;"/></g><g transform="matrix(1,0,0,1,-94,0)"><path d="M105,440l362,0l-2,-116l-307,0l-5,58l-47.027,1.649l-0.973,56.351Z" style="fill:#ae2025;fill-rule:nonzero;"/></g><g transform="matrix(1,0,0,1,-94,0)"><rect x="350" y="359" width="16" height="121" style="fill:#ae2025;fill-rule:nonzero;"/></g><g transform="matrix(1,0,0,1,-94,0)"><rect x="350" y="336" width="16" height="24" style="fill:#ae2025;fill-rule:nonzero;"/></g><g transform="matrix(1,0,0,1,-94,0)"><rect x="209" y="336" width="16" height="24" style="fill:#ae2025;fill-rule:nonzero;"/></g><g transform="matrix(1,0,0,1,-94,0)"><rect x="209" y="359" width="16" height="121" style="fill:#ae2025;fill-rule:nonzero;"/></g><g transform="matrix(1,0,0,1,-94,0)"><path d="M230,336l0,83.5l114,-59.5l0,-24.333l-114,0.333Z" style="fill:#6b151b;fill-rule:nonzero;"/></g><g transform="matrix(1,0,0,1,-94,0)"><path d="M372,336l0,73.5l78,-39.273l0,-34.56l-78,0.333Z" style="fill:#6b151b;fill-rule:nonzero;"/></g><g transform="matrix(1,0,0,1,-94,0)"><path d="M204,336l0,31l-31.3,22.635l4.98,-53.968l26.32,0.333Z" style="fill:#6b151b;fill-rule:nonzero;"/></g><g transform="matrix(1,0,0,1,-94,0)"><path d="M225,460l0,20l6,-20l-6,0Z" style="fill:#6b151b;fill-rule:nonzero;"/></g><g transform="matrix(1,0,0,1,-94,0)"><path d="M366,460l0,20l5.999,-20l-5.999,0Z" style="fill:#6b151b;fill-rule:nonzero;"/></g><g transform="matrix(1,0,0,1,-94,0)"><path d="M451,437l-79,0l0.113,-8l78.887,0l0,8Z" style="fill:#6b151b;fill-rule:nonzero;"/></g><g transform="matrix(1,0,0,1,-94,0)"><path d="M204,437l-82,0l0.117,-8l81.883,0l0,8Z" style="fill:#6b151b;fill-rule:nonzero;"/></g><g transform="matrix(1,0,0,1,-94,0)"><path d="M344,437l-114.066,0l0.169,-8l113.897,0l0,8Z" style="fill:#6b151b;fill-rule:nonzero;"/></g><g transform="matrix(1,0,0,1,-94,0)"><path d="M461.965,329.263l3.502,-10.531l-20.934,-0.039l3.409,10.616l14.023,-0.046Z" style="fill:#c1bebb;fill-rule:nonzero;"/></g><g transform="matrix(1,0,0,1,-94,0)"><path d="M166.7,309l-7.7,80l-62,-1l0,-9l49.759,-3.75l8.908,-66.25l11.033,0Z" style="fill:#543e36;fill-rule:nonzero;"/></g></g></g></g></svg>

<?xml version="1.0" encoding="UTF-8" standalone="no"?>
<!DOCTYPE svg PUBLIC "-//W3C//DTD SVG 1.1//EN" "http://www.w3.org/Graphics/SVG/1.1/DTD/svg11.dtd">
<svg width="100%" height="100%" viewBox="0 0 240 240" version="1.1" xmlns="http://www.w3.org/2000/svg" xmlns:xlink="http://www.w3.org/1999/xlink" xml:space="preserve" xmlns:serif="http://www.serif.com/" style="fill-rule:evenodd;clip-rule:evenodd;stroke-linejoin:round;stroke-miterlimit:2;">
    <g id="parklet-left" transform="matrix(0.635,0,0,0.635,-2.555,-64.8)">
        <g transform="matrix(1,0,0,1,-94,0)">
            <g id="shrub-bg">
                <path d="M352.625,241.926L346.146,249.862L352.406,266.788L337.113,275.016L339.018,264.258L327.009,263.671L324.619,271.383L312.154,273.668L302.334,263.334L295,252.252L283,260.403L272.666,249.801L274.333,245.506L270,240L265,240L255.69,245.506L247.333,235L228.333,231.256L236.026,219L222,208.505L229.666,197.128L228,185L237,185L232.214,171L248.333,157.667L255.69,171.334L268.409,172.334L281.666,171L280,167.667L268.409,164.334L272.666,146.759L277.666,144.334L279.666,133.334L289,126.667L296,140.334L303.666,142.667L315.666,128L326.792,138.334L328.567,148.667L336.145,158L350,148L352.625,166.27L362.572,163.989L366,157.334L378.988,160.667L382.07,171.334L373.158,177.667L384.666,182.334L399,179.667L391.789,193.667L401,205L387.666,222.667L380.333,210L373.158,226.667L366,222.667L362.572,233L370.666,237.549L362.572,240L352.625,241.926Z" style="fill:rgb(53,129,63);fill-rule:nonzero;"/>
            </g>
        </g>
        <g id="shrub-stem">
            <g transform="matrix(1,0,0,1,-94,0)">
                <path d="M318.188,299.567L325.667,261.608L354.765,230.752L358.001,188.404L350.606,183.755L346.145,227.752L318.188,256.252L312.152,296.525L318.188,299.567Z" style="fill:rgb(100,88,73);fill-rule:nonzero;"/>
            </g>
            <g transform="matrix(1,0,0,1,-94,0)">
                <path d="M318.188,286.693L291.596,259.643L288.667,220.722L264.667,190.502L271.813,188.404L295.596,217.752L300.501,255.752L322.39,278.238L318.188,286.693Z" style="fill:rgb(100,88,73);fill-rule:nonzero;"/>
            </g>
            <g transform="matrix(1,0,0,1,-94,0)">
                <path d="M292,238.5L272.015,234.074L249.99,197.692L238.968,196.006L267.983,241.34L292,245.506L292,238.5Z" style="fill:rgb(100,88,73);fill-rule:nonzero;"/>
            </g>
            <g transform="matrix(1,0,0,1,-94,0)">
                <path d="M313.152,191.502L305.667,194.252L309,235.475L329.811,250.762L335.688,243.006L317.187,230.914" style="fill:rgb(100,88,73);fill-rule:nonzero;"/>
            </g>
            <g transform="matrix(1,0,0,1,-94,0)">
                <path d="M330.488,206.667L337.076,187.252L329.488,184.756L324.39,204.211L312.152,212.667L313.691,220.6L330.488,206.667Z" style="fill:rgb(100,88,73);fill-rule:nonzero;"/>
            </g>
        </g>
        <g id="shrub">
            <g transform="matrix(1,0,0,1,-94,0)">
                <path d="M334.08,181L320.454,203.424L338.546,210.804L348.564,194.316L334.08,181Z" style="fill:rgb(105,155,72);fill-rule:nonzero;"/>
            </g>
            <g transform="matrix(1,0,0,1,-94,0)">
                <path d="M320.058,248.438L335.835,218.666L312.088,210.569L300.488,232.458L320.058,248.438Z" style="fill:rgb(105,155,72);fill-rule:nonzero;"/>
            </g>
            <g transform="matrix(1,0,0,1,-94,0)">
                <path d="M290.838,158.869L310.161,166.789L313.711,151.649L299.503,145.825L290.838,158.869Z" style="fill:rgb(105,155,72);fill-rule:nonzero;"/>
            </g>
            <g transform="matrix(1,0,0,1,-94,0)">
                <path d="M276.967,190.497L299.413,185.879L293.377,169.918L276.873,173.313L276.967,190.497Z" style="fill:rgb(105,155,72);fill-rule:nonzero;"/>
            </g>
            <g transform="matrix(1,0,0,1,-94,0)">
                <path d="M253.981,173.867L242.731,202.123L264.832,207.071L273.104,186.294L253.981,173.867Z" style="fill:rgb(105,155,72);fill-rule:nonzero;"/>
            </g>
            <g transform="matrix(1,0,0,1,-94,0)">
                <path d="M275.795,153.771L261.889,172.009L276.935,180.089L287.16,166.679L275.795,153.771Z" style="fill:rgb(105,155,72);fill-rule:nonzero;"/>
            </g>
            <g transform="matrix(1,0,0,1,-94,0)">
                <path d="M264.206,228.328L252.786,202.864L235.406,214.257L243.804,232.98L264.206,228.328Z" style="fill:rgb(105,155,72);fill-rule:nonzero;"/>
            </g>
            <g transform="matrix(1,0,0,1,-94,0)">
                <path d="M276.947,194.156L254.746,214.37L272.22,228.316L288.545,213.454L276.947,194.156Z" style="fill:rgb(105,155,72);fill-rule:nonzero;"/>
            </g>
            <g transform="matrix(1,0,0,1,-94,0)">
                <path d="M302.977,217.135L277.391,219.01L281.78,237.602L300.592,236.223L302.977,217.135Z" style="fill:rgb(105,155,72);fill-rule:nonzero;"/>
            </g>
            <g transform="matrix(1,0,0,1,-94,0)">
                <path d="M291.58,180.166L295.342,212.252L318.491,205.712L315.726,182.12L291.58,180.166Z" style="fill:rgb(105,155,72);fill-rule:nonzero;"/>
            </g>
            <g transform="matrix(1,0,0,1,-94,0)">
                <path d="M263.703,229.441L260.462,249.894L275.883,249.872L278.266,234.833L263.703,229.441Z" style="fill:rgb(105,155,72);fill-rule:nonzero;"/>
            </g>
            <g transform="matrix(1,0,0,1,-94,0)">
                <path d="M298.794,262.873L317.198,251.576L306.727,239.373L293.193,247.68L298.794,262.873Z" style="fill:rgb(105,155,72);fill-rule:nonzero;"/>
            </g>
            <g transform="matrix(1,0,0,1,-94,0)">
                <path d="M322.236,239.886L344.133,259.374L355.886,240.982L339.786,226.652L322.236,239.886Z" style="fill:rgb(105,155,72);fill-rule:nonzero;"/>
            </g>
            <g transform="matrix(1,0,0,1,-94,0)">
                <path d="M300.57,178.778L327.924,183.899L328.47,163.184L308.358,159.419L300.57,178.778Z" style="fill:rgb(105,155,72);fill-rule:nonzero;"/>
            </g>
            <g transform="matrix(1,0,0,1,-94,0)">
                <path d="M358.672,182.073L354.583,211.725L376.867,211.244L379.873,189.441L358.672,182.073Z" style="fill:rgb(105,155,72);fill-rule:nonzero;"/>
            </g>
            <g transform="matrix(1,0,0,1,-94,0)">
                <path d="M338.13,209.84L343.188,233.393L359.912,226.902L356.192,209.584L338.13,209.84Z" style="fill:rgb(105,155,72);fill-rule:nonzero;"/>
            </g>
            <g transform="matrix(1,0,0,1,-94,0)">
                <path d="M365.168,170.99L334.147,158.631L328.708,182.895L351.518,191.983L365.168,170.99Z" style="fill:rgb(105,155,72);fill-rule:nonzero;"/>
            </g>
        </g>
        <g id="plants">
            <g transform="matrix(1,0,0,1,-94,0)">
                <path d="M246.562,278.109L241.957,278.109L241.112,307.355L250.017,308.736L246.562,278.109Z" style="fill:rgb(103,154,69);fill-rule:nonzero;"/>
            </g>
            <g transform="matrix(1,0,0,1,-94,0)">
                <path d="M200.32,253.381L195.558,252.914L195.369,313.604L204.281,315.703L200.32,253.381Z" style="fill:rgb(103,154,69);fill-rule:nonzero;"/>
            </g>
            <g transform="matrix(1,0,0,1,-94,0)">
                <path d="M210.746,253.203L217,234.398L179.617,234.328L185.703,253.285L210.746,253.203Z" style="fill:rgb(174,32,37);fill-rule:nonzero;"/>
            </g>
            <g transform="matrix(1,0,0,1,-94,0)">
                <path d="M256.954,278.361L263.208,259.556L225.825,259.486L231.911,278.443L256.954,278.361Z" style="fill:rgb(174,32,37);fill-rule:nonzero;"/>
            </g>
            <g transform="matrix(1,0,0,1,-94,0)">
                <path d="M381.206,276.145L376.601,276.145L375.757,314.463L384.661,316.273L381.206,276.145Z" style="fill:rgb(103,154,69);fill-rule:nonzero;"/>
            </g>
            <g transform="matrix(1,0,0,1,-94,0)">
                <path d="M391.599,276.398L397.853,257.593L360.47,257.523L366.556,276.48L391.599,276.398Z" style="fill:rgb(174,32,37);fill-rule:nonzero;"/>
            </g>
            <g transform="matrix(1,0,0,1,-94,0)">
                <path d="M426.645,262.347L421.883,261.88L421.694,309.816L430.606,311.915L426.645,262.347Z" style="fill:rgb(103,154,69);fill-rule:nonzero;"/>
            </g>
            <g transform="matrix(1,0,0,1,-94,0)">
                <path d="M437.07,262.169L443.324,243.364L405.941,243.294L412.027,262.251L437.07,262.169Z" style="fill:rgb(174,32,37);fill-rule:nonzero;"/>
            </g>
            <g transform="matrix(1,0,0,1,-94,0)">
                <path d="M207.051,313.506L216.676,304.006L252.371,301.537L259.489,294.506L270.739,301.36L279.551,298.006L299.953,295.535L304.153,298.526L309.153,293.61L315.783,294.99L318.112,288.442L334.352,294.315L361.487,288.195L375.653,302.279L417.748,295.276L428.988,284.111L442.887,296.912L461.514,300.731L465.238,313.539L207.051,313.506Z" style="fill:rgb(103,154,69);fill-rule:nonzero;"/>
            </g>
            <g transform="matrix(1,0,0,1,-94,0)">
                <path d="M378.988,313.57L383.24,307.861L410.49,306.443L429.49,292.693L433.035,307.945L443.324,313.529L378.988,313.57Z" style="fill:rgb(53,129,63);fill-rule:nonzero;"/>
            </g>
            <g transform="matrix(1,0,0,1,-94,0)">
                <path d="M364.917,312.471L347.417,304.053L319.784,300.565L307.854,293.909L301.417,300.387L297.417,296.387L271.604,293.284L265.917,298.928L263.589,292.379L256.372,294.018L250.044,287.469L240.597,292.795L237.804,293.342L208.073,286.815L197.983,296.85L181.439,303.839L176.5,312.567L364.917,312.471Z" style="fill:rgb(103,154,69);fill-rule:nonzero;"/>
            </g>
            <g transform="matrix(1,0,0,1,-94,0)">
                <path d="M231.892,312.729L230.497,308.913L210.708,302.161L207.042,306.995L193.876,312.493L231.892,312.729Z" style="fill:rgb(53,129,63);fill-rule:nonzero;"/>
            </g>
            <g transform="matrix(1,0,0,1,-94,0)">
                <path d="M299.188,312.514L292.188,304.68L283.342,306.729L260.875,306.159L252.813,312.471L272.522,312.514L299.188,312.514Z" style="fill:rgb(53,129,63);fill-rule:nonzero;"/>
            </g>
            <g transform="matrix(1,0,0,1,-94,0)">
                <path d="M320.488,313.611L325.951,309.947L327.488,302.777L358.238,305.359L362.572,313.527L320.488,313.611Z" style="fill:rgb(53,129,63);fill-rule:nonzero;"/>
            </g>
        </g>
        <g id="parklet-with-seat">
            <g transform="matrix(1,0,0,1,-94,0)">
                <path d="M159,312L473.976,312L475.976,336L157,336L159,312Z" style="fill:rgb(174,32,37);fill-rule:nonzero;"/>
            </g>
            <g transform="matrix(1,0,0,1,-94,0)">
                <path d="M100.024,460L473.976,460L475.976,436L98.024,436L100.024,460Z" style="fill:rgb(174,32,37);fill-rule:nonzero;"/>
            </g>
            <g transform="matrix(1,0,0,1,-94,0)">
                <path d="M105,440L467,440L465,324L158,324L153,382L105.973,383.649L105,440Z" style="fill:rgb(174,32,37);fill-rule:nonzero;"/>
            </g>
            <g transform="matrix(1,0,0,1,-94,0)">
                <rect x="350" y="359" width="16" height="121" style="fill:rgb(174,32,37);fill-rule:nonzero;"/>
            </g>
            <g transform="matrix(1,0,0,1,-94,0)">
                <rect x="350" y="336" width="16" height="24" style="fill:rgb(174,32,37);fill-rule:nonzero;"/>
            </g>
            <g transform="matrix(1,0,0,1,-94,0)">
                <rect x="209" y="336" width="16" height="24" style="fill:rgb(174,32,37);fill-rule:nonzero;"/>
            </g>
            <g transform="matrix(1,0,0,1,-94,0)">
                <rect x="209" y="359" width="16" height="121" style="fill:rgb(174,32,37);fill-rule:nonzero;"/>
            </g>
            <g transform="matrix(1,0,0,1,-94,0)">
                <path d="M230,336L230,419.5L344,360L344,335.667L230,336Z" style="fill:rgb(107,21,27);fill-rule:nonzero;"/>
            </g>
            <g transform="matrix(1,0,0,1,-94,0)">
                <path d="M372,336L372,409.5L450,370.227L450,335.667L372,336Z" style="fill:rgb(107,21,27);fill-rule:nonzero;"/>
            </g>
            <g transform="matrix(1,0,0,1,-94,0)">
                <path d="M204,336L204,367L172.7,389.635L177.68,335.667L204,336Z" style="fill:rgb(107,21,27);fill-rule:nonzero;"/>
            </g>
            <g transform="matrix(1,0,0,1,-94,0)">
                <path d="M225,460L225,480L231,460L225,460Z" style="fill:rgb(107,21,27);fill-rule:nonzero;"/>
            </g>
            <g transform="matrix(1,0,0,1,-94,0)">
                <path d="M366,460L366,480L371.999,460L366,460Z" style="fill:rgb(107,21,27);fill-rule:nonzero;"/>
            </g>
            <g transform="matrix(1,0,0,1,-94,0)">
                <path d="M451,437L372,437L372.113,429L451,429L451,437Z" style="fill:rgb(107,21,27);fill-rule:nonzero;"/>
            </g>
            <g transform="matrix(1,0,0,1,-94,0)">
                <path d="M204,437L122,437L122.117,429L204,429L204,437Z" style="fill:rgb(107,21,27);fill-rule:nonzero;"/>
            </g>
            <g transform="matrix(1,0,0,1,-94,0)">
                <path d="M344,437L229.934,437L230.103,429L344,429L344,437Z" style="fill:rgb(107,21,27);fill-rule:nonzero;"/>
            </g>
            <g transform="matrix(1,0,0,1,-94,0)">
                <path d="M461.965,329.263L465.467,318.732L444.533,318.693L447.942,329.309L461.965,329.263Z" style="fill:rgb(193,190,187);fill-rule:nonzero;"/>
            </g>
            <g transform="matrix(1,0,0,1,-94,0)">
                <path d="M166.7,309L159,389L98.024,388.017L98.024,379.017L146.759,375.25L155.667,309L166.7,309Z" style="fill:rgb(84,62,54);fill-rule:nonzero;"/>
            </g>
        </g>
    </g>
</svg>
